X: 12450
T: Farewell To Cape Helles
R: waltz
M: 3/4
K: Gmajor
|:G>A B2 d2|e>d e2 g2|d>B G2 e2|d>B A4|
G>A B2 AG|AB g2 e2|d>e G2 BG|A>B G4:|
e>f g2 gd|ed g2 B2|d>B G3 e|d>B A4|
e>f g2 gd|ed g2 e2|d>e B2 BG|A>B G4|
e>f g2 gd|ed g2 B2|d>B G3 e|d>B A4|
G>A B2 AG|AB g2 e2|d>e G2 BG|A>B G2||

